X: 1462
T: the Maid At The Churn   #2
R: reel
O: McNamara
B: O'Neill's 1850 #1462
Z: Bob Safranek, rjs@gsp.org
Z: Compacted via repeats and multiple endings [JC]
M: C|
L: 1/8
K: G
(GF) !segno!|: DGGA BGAF | DEFd cFAF | DGGA Bcdg | ((3fed) ((3cBA) [1 BGAF :|[2 BGG2 H|] | gd (3.g.g.g gbag | gc (3.c.c.c fgaf |
| gd (3.g.g.g gbag | ((3fed) ((3cBA) BGBd || gd (3.g.g.g gbag | fdef gfga | ((3bag) ((3gfe) ((3fed) ((3efg) | ((3fed) ((3cBA) BGA!segno!F |]
